resources/icons/16px/header.svg

<svg xmlns="http://www.w3.org/2000/svg" viewBox="0 0 16 16">
  <path d="M12 2c-.55 0-1 .45-1 1v4H5V3c0-.55-.45-1-1-1s-1 .45-1 1v10c0 .55.45 1 1 1s1-.45 1-1V9h6v4c0 .55.45 1 1 1s1-.45 1-1V3c0-.55-.45-1-1-1"/>
</svg>

<svg width="16" height="16" viewBox="0 0 16 16" fill="none" xmlns="http://www.w3.org/2000/svg">
<path fill-rule="evenodd" clip-rule="evenodd" d="M12 2C11.45 2 11 2.45 11 3V7H5V3C5 2.45 4.55 2 4 2C3.45 2 3 2.45 3 3V13C3 13.55 3.45 14 4 14C4.55 14 5 13.55 5 13V9H11V13C11 13.55 11.45 14 12 14C12.55 14 13 13.55 13 13V3C13 2.45 12.55 2 12 2Z" fill="black"/>
</svg>
